packages/core/src/svgs/tlm.svg

<svg width="24" height="24" viewBox="0 0 24 24" fill="none" xmlns="http://www.w3.org/2000/svg">
<g clip-path="url(#clip0_31_19817)">
<path d="M0 0H24V24H0V0Z" fill="#EACB7D"/>
<path fill-rule="evenodd" clip-rule="evenodd" d="M10.2969 6.23674L11.2115 4.35403C11.5329 3.69189 12.4672 3.69189 12.7887 4.35403L13.7032 6.23674C13.3792 7.11531 12.7389 7.7136 12.0018 7.71446H12.0001C11.2621 7.71446 10.6209 7.11574 10.2969 6.23674ZM9.94851 6.95332L9.16508 8.5656C9.62012 8.26427 10.1204 8.0377 10.6471 7.89446C10.3741 7.64674 10.1371 7.32703 9.94851 6.95332ZM6.87437 13.2803L6.24008 14.5849C6.6558 14.6312 7.03594 14.7966 7.34494 15.046C7.08327 14.4905 6.92386 13.8924 6.87437 13.2803ZM7.48508 17.5716H5.72922C5.29594 17.5716 5.01265 17.1117 5.20379 16.7187L6.03822 15.0002C6.33593 15.0067 6.62681 15.0906 6.8822 15.2438C7.1376 15.3969 7.3487 15.6139 7.49473 15.8734C7.64075 16.1329 7.71665 16.426 7.71496 16.7238C7.71327 17.0216 7.63404 17.3138 7.48508 17.5716ZM7.96465 17.5716H9.94165C9.22212 17.2565 8.58405 16.7813 8.07608 16.1822C8.19459 16.6448 8.15537 17.1338 7.96465 17.5716ZM14.0589 17.5716H15.6069C15.4857 17.2939 15.4249 16.9935 15.4287 16.6905C15.0216 17.0551 14.5595 17.3525 14.0589 17.5716ZM17.9859 15.0507L18.7964 16.7183C18.9875 17.1117 18.7042 17.5716 18.2709 17.5716H16.0865C15.9358 17.3111 15.8567 17.0154 15.8572 16.7145C15.8572 16.5156 15.8911 16.3245 15.9532 16.147C16.1474 15.9143 16.3209 15.664 16.4718 15.3992C16.679 15.226 16.924 15.1042 17.1871 15.0436C17.4502 14.983 17.7239 14.9857 17.9859 15.0507ZM17.7571 14.5793L17.1258 13.2803C17.0859 13.7723 16.9751 14.2558 16.7967 14.716C17.1021 14.5975 17.4307 14.5507 17.7571 14.5793ZM14.8351 8.5656C14.38 8.2643 13.8797 8.03772 13.3531 7.89446C13.6261 7.64674 13.8631 7.32703 14.0517 6.95332L14.8351 8.5656ZM12.4287 17.122C12.1436 17.1504 11.8565 17.1504 11.5715 17.122V10.7145H8.28779C8.4682 10.4026 8.68705 10.1146 8.93922 9.85731H15.0605C15.3128 10.1146 15.5318 10.4026 15.7124 10.7145H12.4287V17.122ZM12.8572 17.0573C14.8137 16.66 16.2858 14.9307 16.2858 12.8573C16.2866 12.2674 16.1652 11.6837 15.9292 11.143H12.8572V17.0573ZM12.0001 8.5716C12.9652 8.5716 13.8558 8.89046 14.5719 9.42874H9.42822C10.1695 8.87105 11.0724 8.57014 12.0001 8.5716ZM8.07094 11.143C7.83497 11.6837 7.71356 12.2674 7.71437 12.8573C7.71437 14.9307 9.18694 16.66 11.1429 17.0573V11.143H8.07094Z" fill="black"/>
</g>
<defs>
<clipPath id="clip0_31_19817">
<rect width="24" height="24" fill="white"/>
</clipPath>
</defs>
</svg>

<svg xmlns="http://www.w3.org/2000/svg" width="24" height="24" fill="none" viewBox="0 0 24 24"><g clip-path="url(#a)"><path fill="#EACB7D" d="M0 0h24v24H0z"/><path fill="#000" fill-rule="evenodd" d="m10.297 6.237.914-1.883a.874.874 0 0 1 1.578 0l.914 1.883c-.324.878-.964 1.477-1.701 1.477H12c-.738 0-1.38-.598-1.703-1.477m-.348.716-.784 1.613a5.1 5.1 0 0 1 1.482-.672 3.2 3.2 0 0 1-.698-.94M6.874 13.28l-.634 1.305c.416.046.796.212 1.105.461a5.1 5.1 0 0 1-.47-1.766m.611 4.292H5.73a.592.592 0 0 1-.525-.853L6.038 15a1.713 1.713 0 0 1 1.447 2.572m.48 0h1.977a5.16 5.16 0 0 1-1.866-1.39c.119.463.08.952-.111 1.39m6.094 0h1.548a2.1 2.1 0 0 1-.178-.881c-.407.364-.87.662-1.37.88m3.927-2.521.81 1.667a.592.592 0 0 1-.525.854h-2.184a1.7 1.7 0 0 1-.134-1.425q.292-.35.519-.748a1.72 1.72 0 0 1 1.514-.348m-.229-.472-.631-1.299c-.04.492-.15.976-.33 1.436.306-.118.635-.165.961-.137m-2.922-6.013a5.1 5.1 0 0 0-1.482-.672c.273-.247.51-.567.699-.94zm-2.406 8.556a4.3 4.3 0 0 1-.857 0v-6.408H8.288c.18-.311.399-.6.651-.857h6.121q.38.389.652.857H12.43zm.428-.065a4.287 4.287 0 0 0 3.072-5.914h-3.072zM12 8.572c.965 0 1.856.318 2.572.857H9.428A4.27 4.27 0 0 1 12 8.572m-3.93 2.571a4.288 4.288 0 0 0 3.072 5.914v-5.914z" clip-rule="evenodd"/></g><defs><clipPath id="a"><path fill="#fff" d="M0 0h24v24H0z"/></clipPath></defs></svg>
